X: 28
T: MERRY WAKEFIELD
B: "Old English Country Dances", Frank Kidson ed., William Reeves pub., London 1890
N: The final bar was missing its repeat sign.
Z: 2010-9-26 John Chambers <jc:trillian.mit.edu>
M: 9/8
L: 1/8
K: G
|: Bdg gdB gdB | dfa afd a2c | Bdg gdB gdB | B/c/dB e/f/gB A2G :|
|: Bcd dBG AFD | EFG ABc c2B | gdB ecA dBG | B/c/dB e/f/gB A2G :|


%%sep 1 1 500

%%sep 1 1 500

